file-document-arrow-right.svg

<svg fill="currentColor" viewBox="0 0 24 24"><path d="m23 19-3-3v2h-4v2h4v2zm-10 0c0-.3 0-.7.1-1H6v-2h7.8c.5-.8 1.1-1.5 1.9-2H6v-2h12v1.1c.3-.1.7-.1 1-.1s.7 0 1 .1V8l-6-6H6c-1.1 0-2 .9-2 2v16c0 1.1.9 2 2 2h7.8c-.5-.9-.8-1.9-.8-3m0-15.5L18.5 9H13z"/></svg>

<svg  viewBox="0 0 24 24" fill="currentColor"><path  d="M23 19L20 16V18H16V20H20V22L23 19M13 19C13 18.7 13 18.3 13.1 18H6V16H13.8C14.3 15.2 14.9 14.5 15.7 14H6V12H18V13.1C18.3 13 18.7 13 19 13S19.7 13 20 13.1V8L14 2H6C4.9 2 4 2.9 4 4V20C4 21.1 4.9 22 6 22H13.8C13.3 21.1 13 20.1 13 19M13 3.5L18.5 9H13V3.5Z"/></svg>
